X: 34
T:AUTRE BRANLE
M:2/4
L:1/16
Q:160
C:BORJON trait de la musette 1672
K:C
"A"e3d c2g2|defd e2c2|e3d c2g2|defd e4|e3d c2g2|defd e2c2|e3d c2g2|defd
e4|
"B"e3d c2e2|d2c2 B2c2|dcde dcde|d4G2G2|
e3d c2e2|d2c2 B2c2|dcde fede|c8:|
